X: 14786
T: Gan Ainm
R: polka
M: 2/4
K: Bminor
|:"Bm"B2 AB|BA B2|"G" dc de|"A"c4|
"F#m"fg fe|"G"gf ed|"A"cB cd|"Bm" Bd fd|
"Bm"B2 AB|BA B2|"G"dc de|"A"c4|
"F#m"fg fe|"G"gf ed|"A"cB cd|"Bm"~B4:|
|:"Bm"fg fe|dB AB|dB fd|"A"~e4|
"F#m"fg gf|"G" fe df|"A"ef ef|"Bm"BA B2|
"Bm"fg fe|dB AB|dB fd|"A"~e2 fg|
"D"a2 gf|"G"~e4|"A"dc Ac|"Bm" ~B4:|

